X:14
T:Battering Ram, The
E:10
M:6/8
R:jig
I:speed 350
K:D
B|dBG A2G|dBG G2B|dBG AGE|GED D2 B|\
ded BAG|ded BAG|AGA BAB|GED D2:|*
d|deg aga|bge edB|deg aga|bge ega|\
b2g age|ged ege|dBG ABA|GED D2:|*
d|B2G A2G|B2D D2B|BAG AGE|GED D2d|\
B2G A2G|B2G BdB|AGA BAB|GED D2:|**
